X: 1
T: Inver Lasses
O: Trad.
R: reel
Z: 2014 John Chambers <jc:trillian.mit.edu>
S: PDF image of set for The Triumph from George Meikle 2012
M: 4/4
L: 1/8
K: A
A |\
"A"e2cA  "D"d2df | "A"e2cA "E7"dBBf | "A"e2cA "G"d2df | "E7"edcB "A"cAAf ||\
"A"e2cA "Bm"d2df | "A"e2cA  "D"dBBf | "A"e2cA "D"d2df | "E7"edcB "A"cAA  :|
g |\
"A"a2ec "Bm"d2fd | "A"a2ec "Bm"dBBg | "A"a2ec "Bm"d2df | "E7"edcB "A"cAAg ||\
"A"a2ec  "D"d2fd | "A"a2ec "Bm"fBBg | "A"afec  "D"defa | "E7"edcB "A"cAA  :|
